; generated by embodier 0.0.1
G1 Z0.3
G1 X-27.5 Y-10.5 E0
G1 X-28.5 Y-10.5 E1.0
G1 X-28.5 Y-9.5 E2.0
G1 X-27.5 Y-9.5 E3.0
G1 X-27.5 Y-8.5 E4.0
G1 X-28.5 Y-8.5 E5.0
G1 X-28.5 Y-7.5 E6.0
G1 X-29.5 Y-7.5 E7.0
G1 X-29.5 Y-6.5 E8.0
G1 X-28.5 Y-6.5 E9.0
G1 X-28.5 Y-7.5 E10.0
G1 X-27.5 Y-7.5 E11.0
G1 X-27.5 Y-6.5 E12.0
G1 X-26.5 Y-6.5 E13.0
G1 X-26.5 Y-5.5 E14.0
G1 X-26.5 Y-4.5 E15.0
G1 X-26.5 Y-3.5 E16.0
G1 X-27.5 Y-3.5 E17.0
G1 X-28.5 Y-3.5 E18.0
G1 X-28.5 Y-2.5 E19.0
G1 X-28.5 Y-1.5 E20.0
G1 X-29.5 Y-1.5 E21.0
G1 X-29.5 Y-0.5 E22.0
G1 X-30.5 Y-0.5 E23.0
G1 X-30.5 Y0.5 E24.0
G1 X-29.5 Y0.5 E25.0
G1 X-28.5 Y0.5 E26.0
G1 X-28.5 Y1.5 E27.0
G1 X-29.5 Y1.5 E28.0
G1 X-29.5 Y0.5 E29.0
G1 X-29.5 Y-0.5 E30.0
G1 X-28.5 Y-0.5 E31.0
G1 X-28.5 Y-1.5 E32.0
G1 X-27.5 Y-1.5 E33.0
G1 X-27.5 Y-2.5 E34.0
G1 X-27.5 Y-3.5 E35.0
G1 X-27.5 Y-4.5 E36.0
G1 X-28.5 Y-4.5 E37.0
G1 X-28.5 Y-5.5 E38.0
G1 X-27.5 Y-5.5 E39.0
G1 X-27.5 Y-4.5 E40.0
G1 X-26.5 Y-4.5 E41.0
G1 X-25.5 Y-4.5 E42.0
G1 X-25.5 Y-3.5 E43.0
G1 X-24.5 Y-3.5 E44.0
G1 X-24.5 Y-4.5 E45.0
G1 X-23.5 Y-4.5 E46.0
G1 X-23.5 Y-3.5 E47.0
G1 X-22.5 Y-3.5 E48.0
G1 X-22.5 Y-2.5 E49.0
G1 X-21.5 Y-2.5 E50.0
G1 X-21.5 Y-1.5 E51.0
G1 X-21.5 Y-0.5 E52.0
G1 X-20.5 Y-0.5 E53.0
G1 X-19.5 Y-0.5 E54.0
G1 X-19.5 Y-1.5 E55.0
G1 X-20.5 Y-1.5 E56.0
G1 X-20.5 Y-0.5 E57.0
G1 X-20.5 Y0.5 E58.0
G1 X-20.5 Y1.5 E59.0
G1 X-21.5 Y1.5 E60.0
G1 X27.5 Y-10.5 E110.44799302251775
G1 X27.5 Y-9.5 E111.44799302251775
G1 X27.5 Y-8.5 E112.44799302251775
G1 X27.5 Y-7.5 E113.44799302251775
G1 X26.5 Y-7.5 E114.44799302251775
G1 X26.5 Y-8.5 E115.44799302251775
G1 X25.5 Y-8.5 E116.44799302251775
G1 X25.5 Y-9.5 E117.44799302251775
G1 X25.5 Y-10.5 E118.44799302251775
G1 X24.5 Y-10.5 E119.44799302251775
G1 X24.5 Y-11.5 E120.44799302251775
G1 X23.5 Y-11.5 E121.44799302251775
G1 X23.5 Y-10.5 E122.44799302251775
G1 X22.5 Y-10.5 E123.44799302251775
G1 X21.5 Y-10.5 E124.44799302251775
G1 X21.5 Y-9.5 E125.44799302251775
G1 X21.5 Y-8.5 E126.44799302251775
G1 X22.5 Y-8.5 E127.44799302251775
G1 X22.5 Y-7.5 E128.44799302251775
G1 X23.5 Y-7.5 E129.44799302251775
G1 X23.5 Y-8.5 E130.44799302251775
G1 X22.5 Y-8.5 E131.44799302251775
G1 X22.5 Y-9.5 E132.44799302251775
G1 X22.5 Y-10.5 E133.44799302251775
G1 X22.5 Y-11.5 E134.44799302251775
G1 X21.5 Y-11.5 E135.44799302251775
G1 X21.5 Y-10.5 E136.44799302251775
G1 X20.5 Y-10.5 E137.44799302251775
G1 X20.5 Y-11.5 E138.44799302251775
G1 X19.5 Y-11.5 E139.44799302251775
G1 X19.5 Y-10.5 E140.44799302251775
G1 X18.5 Y-10.5 E141.44799302251775
G1 X17.5 Y-10.5 E142.44799302251775
G1 X17.5 Y-9.5 E143.44799302251775
G1 X17.5 Y-8.5 E144.44799302251775
G1 X18.5 Y-8.5 E145.44799302251775
G1 X18.5 Y-7.5 E146.44799302251775
G1 X19.5 Y-7.5 E147.44799302251775
G1 X19.5 Y-8.5 E148.44799302251775
G1 X18.5 Y-8.5 E149.44799302251775
G1 X18.5 Y-9.5 E150.44799302251775
G1 X18.5 Y-10.5 E151.44799302251775
G1 X18.5 Y-11.5 E152.44799302251775
G1 X17.5 Y-11.5 E153.44799302251775
G1 X17.5 Y-10.5 E154.44799302251775
G1 X16.5 Y-10.5 E155.44799302251775
G1 X16.5 Y-11.5 E156.44799302251775
G1 X15.5 Y-11.5 E157.44799302251775
G1 X15.5 Y-10.5 E158.44799302251775
G1 X14.5 Y-10.5 E159.44799302251775
G1 X13.5 Y-10.5 E160.44799302251775
G1 X13.5 Y-9.5 E161.44799302251775
G1 X13.5 Y-8.5 E162.44799302251775
G1 X13.5 Y-7.5 E163.44799302251775
G1 X12.5 Y-7.5 E164.44799302251775
G1 X12.5 Y-8.5 E165.44799302251775
G1 X11.5 Y-8.5 E166.44799302251775
G1 X11.5 Y-9.5 E167.44799302251775
G1 X12.5 Y-9.5 E168.44799302251775
G1 X12.5 Y-8.5 E169.44799302251775
G1 X13.5 Y-8.5 E170.44799302251775
G1 X14.5 Y-8.5 E171.44799302251775
G1 X14.5 Y-7.5 E172.44799302251775
G1 X15.5 Y-7.5 E173.44799302251775
G1 X15.5 Y-8.5 E174.44799302251775
G1 X14.5 Y-8.5 E175.44799302251775
G1 X14.5 Y-9.5 E176.44799302251775
G1 X14.5 Y-10.5 E177.44799302251775
G1 X14.5 Y-11.5 E178.44799302251775
G1 X13.5 Y-11.5 E179.44799302251775
G1 X13.5 Y-10.5 E180.44799302251775
G1 X12.5 Y-10.5 E181.44799302251775
G1 X12.5 Y-11.5 E182.44799302251775
G1 X11.5 Y-11.5 E183.44799302251775
G1 X11.5 Y-10.5 E184.44799302251775
G1 X10.5 Y-10.5 E185.44799302251775
G1 X9.5 Y-10.5 E186.44799302251775
G1 X9.5 Y-9.5 E187.44799302251775
G1 X9.5 Y-8.5 E188.44799302251775
G1 X10.5 Y-8.5 E189.44799302251775
G1 X10.5 Y-7.5 E190.44799302251775
G1 X11.5 Y-7.5 E191.44799302251775
G1 X11.5 Y-8.5 E192.44799302251775
G1 X10.5 Y-8.5 E193.44799302251775
G1 X10.5 Y-9.5 E194.44799302251775
G1 X10.5 Y-10.5 E195.44799302251775
G1 X10.5 Y-11.5 E196.44799302251775
G1 X9.5 Y-11.5 E197.44799302251775
G1 X9.5 Y-10.5 E198.44799302251775
G1 X8.5 Y-10.5 E199.44799302251775
G1 X8.5 Y-11.5 E200.44799302251775
G1 X7.5 Y-11.5 E201.44799302251775
G1 X7.5 Y-10.5 E202.44799302251775
G1 X6.5 Y-10.5 E203.44799302251775
G1 X5.5 Y-10.5 E204.44799302251775
G1 X5.5 Y-9.5 E205.44799302251775
G1 X5.5 Y-8.5 E206.44799302251775
G1 X6.5 Y-8.5 E207.44799302251775
G1 X6.5 Y-7.5 E208.44799302251775
G1 X7.5 Y-7.5 E209.44799302251775
G1 X7.5 Y-8.5 E210.44799302251775
G1 X6.5 Y-8.5 E211.44799302251775
G1 X6.5 Y-9.5 E212.44799302251775
G1 X6.5 Y-10.5 E213.44799302251775
G1 X6.5 Y-11.5 E214.44799302251775
G1 X5.5 Y-11.5 E215.44799302251775
G1 X5.5 Y-10.5 E216.44799302251775
G1 X4.5 Y-10.5 E217.44799302251775
G1 X4.5 Y-11.5 E218.44799302251775
G1 X3.5 Y-11.5 E219.44799302251775
G1 X3.5 Y-10.5 E220.44799302251775
G1 X2.5 Y-10.5 E221.44799302251775
G1 X1.5 Y-10.5 E222.44799302251775
G1 X1.5 Y-9.5 E223.44799302251775
G1 X1.5 Y-8.5 E224.44799302251775
G1 X2.5 Y-8.5 E225.44799302251775
G1 X2.5 Y-7.5 E226.44799302251775
G1 X3.5 Y-7.5 E227.44799302251775
G1 X3.5 Y-8.5 E228.44799302251775
G1 X2.5 Y-8.5 E229.44799302251775
G1 X2.5 Y-9.5 E230.44799302251775
G1 X2.5 Y-10.5 E231.44799302251775
G1 X2.5 Y-11.5 E232.44799302251775
G1 X1.5 Y-11.5 E233.44799302251775
G1 X1.5 Y-10.5 E234.44799302251775
G1 X0.5 Y-10.5 E235.44799302251775
G1 X0.5 Y-11.5 E236.44799302251775
G1 X-0.5 Y-11.5 E237.44799302251775
G1 X-0.5 Y-10.5 E238.44799302251775
G1 X-1.5 Y-10.5 E239.44799302251775
G1 X-2.5 Y-10.5 E240.44799302251775
G1 X-2.5 Y-9.5 E241.44799302251775
G1 X-2.5 Y-8.5 E242.44799302251775
G1 X-1.5 Y-8.5 E243.44799302251775
G1 X-1.5 Y-7.5 E244.44799302251775
G1 X-0.5 Y-7.5 E245.44799302251775
G1 X-0.5 Y-8.5 E246.44799302251775
G1 X-1.5 Y-8.5 E247.44799302251775
G1 X-1.5 Y-9.5 E248.44799302251775
G1 X-1.5 Y-10.5 E249.44799302251775
G1 X-1.5 Y-11.5 E250.44799302251775
G1 X-2.5 Y-11.5 E251.44799302251775
G1 X-2.5 Y-10.5 E252.44799302251775
G1 X-3.5 Y-10.5 E253.44799302251775
G1 X-3.5 Y-11.5 E254.44799302251775
G1 X-4.5 Y-11.5 E255.44799302251775
G1 X-4.5 Y-10.5 E256.4479930225177
G1 X-5.5 Y-10.5 E257.4479930225177
G1 X-6.5 Y-10.5 E258.4479930225177
G1 X-6.5 Y-9.5 E259.4479930225177
G1 X-6.5 Y-8.5 E260.4479930225177
G1 X-5.5 Y-8.5 E261.4479930225177
G1 X-5.5 Y-7.5 E262.4479930225177
G1 X-4.5 Y-7.5 E263.4479930225177
G1 X-4.5 Y-8.5 E264.4479930225177
G1 X-5.5 Y-8.5 E265.4479930225177
G1 X-5.5 Y-9.5 E266.4479930225177
G1 X-5.5 Y-10.5 E267.4479930225177
G1 X-5.5 Y-11.5 E268.4479930225177
G1 X-6.5 Y-11.5 E269.4479930225177
G1 X-6.5 Y-10.5 E270.4479930225177
G1 X-7.5 Y-10.5 E271.4479930225177
G1 X-7.5 Y-11.5 E272.4479930225177
G1 X-8.5 Y-11.5 E273.4479930225177
G1 X-8.5 Y-10.5 E274.4479930225177
G1 X-9.5 Y-10.5 E275.4479930225177
G1 X-10.5 Y-10.5 E276.4479930225177
G1 X-10.5 Y-9.5 E277.4479930225177
G1 X-10.5 Y-8.5 E278.4479930225177
G1 X-9.5 Y-8.5 E279.4479930225177
G1 X-9.5 Y-7.5 E280.4479930225177
G1 X-8.5 Y-7.5 E281.4479930225177
G1 X-8.5 Y-8.5 E282.4479930225177
G1 X-9.5 Y-8.5 E283.4479930225177
G1 X-9.5 Y-9.5 E284.4479930225177
G1 X-9.5 Y-10.5 E285.4479930225177
G1 X-9.5 Y-11.5 E286.4479930225177
G1 X-10.5 Y-11.5 E287.4479930225177
G1 X-10.5 Y-10.5 E288.4479930225177
G1 X-11.5 Y-10.5 E289.4479930225177
G1 X-11.5 Y-11.5 E290.4479930225177
G1 X-12.5 Y-11.5 E291.4479930225177
G1 X-12.5 Y-10.5 E292.4479930225177
G1 X-13.5 Y-10.5 E293.4479930225177
G1 X-14.5 Y-10.5 E294.4479930225177
G1 X-14.5 Y-11.5 E295.4479930225177
G1 X-13.5 Y-11.5 E296.4479930225177
G1 X-13.5 Y-10.5 E297.4479930225177
G1 X-13.5 Y-9.5 E298.4479930225177
G1 X-13.5 Y-8.5 E299.4479930225177
G1 X-12.5 Y-8.5 E300.4479930225177
G1 X-12.5 Y-7.5 E301.4479930225177
G1 X-11.5 Y-7.5 E302.4479930225177
G1 X-11.5 Y-6.5 E303.4479930225177
G1 X-10.5 Y-6.5 E304.4479930225177
G1 X-10.5 Y-5.5 E305.4479930225177
G1 X-9.5 Y-5.5 E306.4479930225177
G1 X-8.5 Y-5.5 E307.4479930225177
G1 X-8.5 Y-6.5 E308.4479930225177
G1 X-7.5 Y-6.5 E309.4479930225177
G1 X-7.5 Y-5.5 E310.4479930225177
G1 X-6.5 Y-5.5 E311.4479930225177
G1 X-6.5 Y-6.5 E312.4479930225177
G1 X-7.5 Y-6.5 E313.4479930225177
G1 X-7.5 Y-7.5 E314.4479930225177
G1 X-8.5 Y-7.5 E315.4479930225177
G1 X-8.5 Y-6.5 E316.4479930225177
G1 X-9.5 Y-6.5 E317.4479930225177
G1 X-10.5 Y-6.5 E318.4479930225177
G1 X-10.5 Y-7.5 E319.4479930225177
G1 X-11.5 Y-7.5 E320.4479930225177
G1 X-11.5 Y-8.5 E321.4479930225177
G1 X-12.5 Y-8.5 E322.4479930225177
G1 X-12.5 Y-9.5 E323.4479930225177
G1 X-11.5 Y-9.5 E324.4479930225177
G1 X-11.5 Y-8.5 E325.4479930225177
G1 X-10.5 Y-8.5 E326.4479930225177
G1 X-10.5 Y-7.5 E327.4479930225177
G1 X-9.5 Y-7.5 E328.4479930225177
G1 X-9.5 Y-6.5 E329.4479930225177
G1 X-9.5 Y-5.5 E330.4479930225177
G1 X-9.5 Y-4.5 E331.4479930225177
G1 X-8.5 Y-4.5 E332.4479930225177
G1 X-8.5 Y-3.5 E333.4479930225177
G1 X-8.5 Y-2.5 E334.4479930225177
G1 X-9.5 Y-2.5 E335.4479930225177
G1 X-10.5 Y-2.5 E336.4479930225177
G1 X-10.5 Y-3.5 E337.4479930225177
G1 X-9.5 Y-3.5 E338.4479930225177
G1 X-9.5 Y-2.5 E339.4479930225177
G1 X-9.5 Y-1.5 E340.4479930225177
G1 X-9.5 Y-0.5 E341.4479930225177
G1 X-8.5 Y-0.5 E342.4479930225177
G1 X-8.5 Y0.5 E343.4479930225177
G1 X-8.5 Y1.5 E344.4479930225177
G1 X-9.5 Y1.5 E345.4479930225177
G1 X-10.5 Y1.5 E346.4479930225177
G1 X-10.5 Y0.5 E347.4479930225177
G1 X-9.5 Y0.5 E348.4479930225177
G1 X-9.5 Y1.5 E349.4479930225177
G1 X-9.5 Y2.5 E350.4479930225177
G1 X-9.5 Y3.5 E351.4479930225177
G1 X-8.5 Y3.5 E352.4479930225177
G1 X-8.5 Y4.5 E353.4479930225177
G1 X-8.5 Y5.5 E354.4479930225177
G1 X-9.5 Y5.5 E355.4479930225177
G1 X-10.5 Y5.5 E356.4479930225177
G1 X-10.5 Y4.5 E357.4479930225177
G1 X-9.5 Y4.5 E358.4479930225177
G1 X-9.5 Y5.5 E359.4479930225177
G1 X-9.5 Y6.5 E360.4479930225177
G1 X-9.5 Y7.5 E361.4479930225177
G1 X-8.5 Y7.5 E362.4479930225177
G1 X-8.5 Y8.5 E363.4479930225177
G1 X-8.5 Y9.5 E364.4479930225177
G1 X-9.5 Y9.5 E365.4479930225177
G1 X-10.5 Y9.5 E366.4479930225177
G1 X-10.5 Y8.5 E367.4479930225177
G1 X-11.5 Y8.5 E368.4479930225177
G1 X-11.5 Y7.5 E369.4479930225177
G1 X-12.5 Y7.5 E370.4479930225177
G1 X-12.5 Y6.5 E371.4479930225177
G1 X-11.5 Y6.5 E372.4479930225177
G1 X-11.5 Y7.5 E373.4479930225177
G1 X-10.5 Y7.5 E374.4479930225177
G1 X-10.5 Y8.5 E375.4479930225177
G1 X-9.5 Y8.5 E376.4479930225177
G1 X-9.5 Y9.5 E377.4479930225177
G1 X-9.5 Y10.5 E378.4479930225177
G1 X-9.5 Y11.5 E379.4479930225177
G1 X-8.5 Y11.5 E380.4479930225177
G1 X-8.5 Y10.5 E381.4479930225177
G1 X-7.5 Y10.5 E382.4479930225177
G1 X-7.5 Y11.5 E383.4479930225177
G1 X-6.5 Y11.5 E384.4479930225177
G1 X-6.5 Y10.5 E385.4479930225177
G1 X-5.5 Y10.5 E386.4479930225177
G1 X-4.5 Y10.5 E387.4479930225177
G1 X-4.5 Y9.5 E388.4479930225177
G1 X-3.5 Y9.5 E389.4479930225177
G1 X-3.5 Y10.5 E390.4479930225177
G1 X-2.5 Y10.5 E391.4479930225177
G1 X-2.5 Y9.5 E392.4479930225177
G1 X-3.5 Y9.5 E393.4479930225177
G1 X-3.5 Y8.5 E394.4479930225177
G1 X-4.5 Y8.5 E395.4479930225177
G1 X-5.5 Y8.5 E396.4479930225177
G1 X-5.5 Y7.5 E397.4479930225177
G1 X-6.5 Y7.5 E398.4479930225177
G1 X-6.5 Y6.5 E399.4479930225177
G1 X-5.5 Y6.5 E400.4479930225177
G1 X-4.5 Y6.5 E401.4479930225177
G1 X-4.5 Y5.5 E402.4479930225177
G1 X-3.5 Y5.5 E403.4479930225177
G1 X-3.5 Y6.5 E404.4479930225177
G1 X-2.5 Y6.5 E405.4479930225177
G1 X-2.5 Y5.5 E406.4479930225177
G1 X-3.5 Y5.5 E407.4479930225177
G1 X-3.5 Y4.5 E408.4479930225177
G1 X-4.5 Y4.5 E409.4479930225177
G1 X-5.5 Y4.5 E410.4479930225177
G1 X-5.5 Y3.5 E411.4479930225177
G1 X-6.5 Y3.5 E412.4479930225177
G1 X-6.5 Y2.5 E413.4479930225177
G1 X-5.5 Y2.5 E414.4479930225177
G1 X-4.5 Y2.5 E415.4479930225177
G1 X-4.5 Y1.5 E416.4479930225177
G1 X-3.5 Y1.5 E417.4479930225177
G1 X-3.5 Y2.5 E418.4479930225177
G1 X-2.5 Y2.5 E419.4479930225177
G1 X-2.5 Y1.5 E420.4479930225177
G1 X-3.5 Y1.5 E421.4479930225177
G1 X-3.5 Y0.5 E422.4479930225177
G1 X-4.5 Y0.5 E423.4479930225177
G1 X-5.5 Y0.5 E424.4479930225177
G1 X-5.5 Y-0.5 E425.4479930225177
G1 X-6.5 Y-0.5 E426.4479930225177
G1 X-6.5 Y-1.5 E427.4479930225177
G1 X-5.5 Y-1.5 E428.4479930225177
G1 X-4.5 Y-1.5 E429.4479930225177
G1 X-4.5 Y-2.5 E430.4479930225177
G1 X-3.5 Y-2.5 E431.4479930225177
G1 X-3.5 Y-1.5 E432.4479930225177
G1 X-2.5 Y-1.5 E433.4479930225177
G1 X-2.5 Y-2.5 E434.4479930225177
G1 X-3.5 Y-2.5 E435.4479930225177
G1 X-3.5 Y-3.5 E436.4479930225177
G1 X-4.5 Y-3.5 E437.4479930225177
G1 X-5.5 Y-3.5 E438.4479930225177
G1 X-5.5 Y-4.5 E439.4479930225177
G1 X-6.5 Y-4.5 E440.4479930225177
G1 X-6.5 Y-5.5 E441.4479930225177
G1 X-5.5 Y-5.5 E442.4479930225177
G1 X-4.5 Y-5.5 E443.4479930225177
G1 X-4.5 Y-6.5 E444.4479930225177
G1 X-3.5 Y-6.5 E445.4479930225177
G1 X-3.5 Y-5.5 E446.4479930225177
G1 X-2.5 Y-5.5 E447.4479930225177
G1 X-2.5 Y-6.5 E448.4479930225177
G1 X-3.5 Y-6.5 E449.4479930225177
G1 X-3.5 Y-7.5 E450.4479930225177
G1 X-4.5 Y-7.5 E451.4479930225177
G1 X-4.5 Y-6.5 E452.4479930225177
G1 X-5.5 Y-6.5 E453.4479930225177
G1 X-6.5 Y-6.5 E454.4479930225177
G1 X-6.5 Y-7.5 E455.4479930225177
G1 X-7.5 Y-7.5 E456.4479930225177
G1 X-7.5 Y-8.5 E457.4479930225177
G1 X-8.5 Y-8.5 E458.4479930225177
G1 X-8.5 Y-9.5 E459.4479930225177
G1 X-7.5 Y-9.5 E460.4479930225177
G1 X-7.5 Y-8.5 E461.4479930225177
G1 X-6.5 Y-8.5 E462.4479930225177
G1 X-6.5 Y-7.5 E463.4479930225177
G1 X-5.5 Y-7.5 E464.4479930225177
G1 X-5.5 Y-6.5 E465.4479930225177
G1 X-5.5 Y-5.5 E466.4479930225177
G1 X-5.5 Y-4.5 E467.4479930225177
G1 X-4.5 Y-4.5 E468.4479930225177
G1 X-4.5 Y-3.5 E469.4479930225177
G1 X-4.5 Y-2.5 E470.4479930225177
G1 X-5.5 Y-2.5 E471.4479930225177
G1 X-6.5 Y-2.5 E472.4479930225177
G1 X-6.5 Y-3.5 E473.4479930225177
G1 X-7.5 Y-3.5 E474.4479930225177
G1 X-7.5 Y-4.5 E475.4479930225177
G1 X-8.5 Y-4.5 E476.4479930225177
G1 X-8.5 Y-5.5 E477.4479930225177
G1 X-7.5 Y-5.5 E478.4479930225177
G1 X-7.5 Y-4.5 E479.4479930225177
G1 X-6.5 Y-4.5 E480.4479930225177
G1 X-6.5 Y-3.5 E481.4479930225177
G1 X-5.5 Y-3.5 E482.4479930225177
G1 X-5.5 Y-2.5 E483.4479930225177
G1 X-5.5 Y-1.5 E484.4479930225177
G1 X-5.5 Y-0.5 E485.4479930225177
G1 X-4.5 Y-0.5 E486.4479930225177
G1 X-4.5 Y0.5 E487.4479930225177
G1 X-4.5 Y1.5 E488.4479930225177
G1 X-5.5 Y1.5 E489.4479930225177
G1 X-6.5 Y1.5 E490.4479930225177
G1 X-6.5 Y0.5 E491.4479930225177
G1 X-7.5 Y0.5 E492.4479930225177
G1 X-7.5 Y-0.5 E493.4479930225177
G1 X-8.5 Y-0.5 E494.4479930225177
G1 X-8.5 Y-1.5 E495.4479930225177
G1 X-7.5 Y-1.5 E496.4479930225177
G1 X-7.5 Y-0.5 E497.4479930225177
G1 X-6.5 Y-0.5 E498.4479930225177
G1 X-6.5 Y0.5 E499.4479930225177
G1 X-5.5 Y0.5 E500.4479930225177
G1 X-5.5 Y1.5 E501.4479930225177
G1 X-5.5 Y2.5 E502.4479930225177
G1 X-5.5 Y3.5 E503.4479930225177
G1 X-4.5 Y3.5 E504.4479930225177
G1 X-4.5 Y4.5 E505.4479930225177
G1 X-4.5 Y5.5 E506.4479930225177
G1 X-5.5 Y5.5 E507.4479930225177
G1 X-6.5 Y5.5 E508.4479930225177
G1 X-6.5 Y4.5 E509.4479930225177
G1 X-7.5 Y4.5 E510.4479930225177
G1 X-7.5 Y3.5 E511.4479930225177
G1 X-8.5 Y3.5 E512.4479930225177
G1 X-8.5 Y2.5 E513.4479930225177
G1 X-7.5 Y2.5 E514.4479930225177
G1 X-7.5 Y3.5 E515.4479930225177
G1 X-6.5 Y3.5 E516.4479930225177
G1 X-6.5 Y4.5 E517.4479930225177
G1 X-5.5 Y4.5 E518.4479930225177
G1 X-5.5 Y5.5 E519.4479930225177
G1 X-5.5 Y6.5 E520.4479930225177
G1 X-5.5 Y7.5 E521.4479930225177
G1 X-4.5 Y7.5 E522.4479930225177
G1 X-4.5 Y8.5 E523.4479930225177
G1 X-4.5 Y9.5 E524.4479930225177
G1 X-5.5 Y9.5 E525.4479930225177
G1 X-6.5 Y9.5 E526.4479930225177
G1 X-6.5 Y8.5 E527.4479930225177
G1 X-7.5 Y8.5 E528.4479930225177
G1 X-7.5 Y7.5 E529.4479930225177
G1 X-8.5 Y7.5 E530.4479930225177
G1 X-8.5 Y6.5 E531.4479930225177
G1 X-7.5 Y6.5 E532.4479930225177
G1 X-7.5 Y7.5 E533.4479930225177
G1 X-6.5 Y7.5 E534.4479930225177
G1 X-6.5 Y8.5 E535.4479930225177
