; generated by embodier 0.0.1
G1 Z0.0
G1 X-6.375 Y4.875 E0
G1 X-7.125 Y4.875 E0.75
G1 X-7.875 Y4.875 E1.5
G1 X-7.875 Y4.125 E2.25
G1 X-8.625 Y4.125 E3.0
G1 X-8.625 Y3.375 E3.75
G1 X-9.375 Y3.375 E4.5
G1 X-9.375 Y2.625 E5.25
G1 X-8.625 Y2.625 E6.0
G1 X-8.625 Y3.375 E6.75
G1 X-7.875 Y3.375 E7.5
G1 X-7.875 Y4.125 E8.25
G1 X-7.125 Y4.125 E9.0
G1 X-7.125 Y4.875 E9.75
G1 X-7.125 Y5.625 E10.5
G1 X-7.125 Y6.375 E11.25
G1 X-6.375 Y6.375 E12.0
G1 X-5.625 Y6.375 E12.75
G1 X-5.625 Y7.125 E13.5
G1 X-4.875 Y7.125 E14.25
G1 X-4.875 Y7.875 E15.0
G1 X-4.125 Y7.875 E15.75
G1 X-4.125 Y8.625 E16.5
G1 X-4.125 Y9.375 E17.25
G1 X-3.375 Y9.375 E18.0
G1 X-3.375 Y10.125 E18.75
G1 X-2.625 Y10.125 E19.5
G1 X-2.625 Y9.375 E20.25
G1 X-3.375 Y9.375 E21.0
G1 X-3.375 Y8.625 E21.75
G1 X-2.625 Y8.625 E22.5
G1 X-2.625 Y9.375 E23.25
G1 X-1.875 Y9.375 E24.0
G1 X-1.125 Y9.375 E24.75
G1 X-0.375 Y9.375 E25.5
G1 X-0.375 Y10.125 E26.25
G1 X0.375 Y10.125 E27.0
G1 X0.375 Y9.375 E27.75
G1 X-0.375 Y9.375 E28.5
G1 X-0.375 Y8.625 E29.25
G1 X0.375 Y8.625 E30.0
G1 X0.375 Y9.375 E30.75
G1 X1.125 Y9.375 E31.5
G1 X1.875 Y9.375 E32.25
G1 X2.625 Y9.375 E33.0
G1 X2.625 Y10.125 E33.75
G1 X3.375 Y10.125 E34.5
G1 X3.375 Y9.375 E35.25
G1 X2.625 Y9.375 E36.0
G1 X2.625 Y8.625 E36.75
G1 X3.375 Y8.625 E37.5
G1 X3.375 Y9.375 E38.25
G1 X4.125 Y9.375 E39.0
G1 X4.875 Y9.375 E39.75
G1 X5.625 Y9.375 E40.5
G1 X5.625 Y10.125 E41.25
G1 X6.375 Y10.125 E42.0
G1 X6.375 Y9.375 E42.75
G1 X5.625 Y9.375 E43.5
G1 X5.625 Y8.625 E44.25
G1 X6.375 Y8.625 E45.0
G1 X6.375 Y9.375 E45.75
G1 X7.125 Y9.375 E46.5
G1 X7.875 Y9.375 E47.25
G1 X7.875 Y10.125 E48.0
G1 X7.125 Y10.125 E48.75
G1 X7.125 Y9.375 E49.5
G1 X7.125 Y8.625 E50.25
G1 X7.875 Y8.625 E51.0
G1 X8.625 Y8.625 E51.75
G1 X8.625 Y9.375 E52.5
G1 X9.375 Y9.375 E53.25
G1 X9.375 Y10.125 E54.0
G1 X10.125 Y10.125 E54.75
G1 X10.125 Y9.375 E55.5
G1 X9.375 Y9.375 E56.25
G1 X9.375 Y8.625 E57.0
G1 X8.625 Y8.625 E57.75
G1 X8.625 Y7.875 E58.5
G1 X7.875 Y7.875 E59.25
G1 X7.875 Y7.125 E60.0
G1 X7.875 Y6.375 E60.75
G1 X7.875 Y5.625 E61.5
G1 X7.875 Y4.875 E62.25
G1 X8.625 Y4.875 E63.0
G1 X8.625 Y4.125 E63.75
G1 X9.375 Y4.125 E64.5
G1 X9.375 Y4.875 E65.25
G1 X10.125 Y4.875 E66.0
G1 X10.125 Y4.125 E66.75
G1 X9.375 Y4.125 E67.5
G1 X9.375 Y3.375 E68.25
G1 X9.375 Y2.625 E69.0
G1 X8.625 Y2.625 E69.75
G1 X8.625 Y1.875 E70.5
G1 X7.875 Y1.875 E71.25
G1 X7.125 Y1.875 E72.0
G1 X7.125 Y1.125 E72.75
G1 X6.375 Y1.125 E73.5
G1 X6.375 Y0.375 E74.25
G1 X5.625 Y0.375 E75.0
G1 X5.625 Y-0.375 E75.75
G1 X6.375 Y-0.375 E76.5
G1 X6.375 Y0.375 E77.25
G1 X7.125 Y0.375 E78.0
G1 X7.125 Y1.125 E78.75
G1 X7.875 Y1.125 E79.5
G1 X7.875 Y1.875 E80.25
G1 X7.875 Y2.625 E81.0
G1 X7.875 Y3.375 E81.75
G1 X8.625 Y3.375 E82.5
G1 X8.625 Y2.625 E83.25
G1 X7.875 Y2.625 E84.0
G1 X7.125 Y2.625 E84.75
G1 X7.125 Y1.875 E85.5
G1 X6.375 Y1.875 E86.25
G1 X6.375 Y1.125 E87.0
G1 X5.625 Y1.125 E87.75
G1 X5.625 Y1.875 E88.5
G1 X4.875 Y1.875 E89.25
G1 X4.125 Y1.875 E90.0
G1 X4.125 Y1.125 E90.75
G1 X3.375 Y1.125 E91.5
G1 X3.375 Y0.375 E92.25
G1 X2.625 Y0.375 E93.0
G1 X2.625 Y-0.375 E93.75
G1 X3.375 Y-0.375 E94.5
G1 X3.375 Y0.375 E95.25
G1 X4.125 Y0.375 E96.0
G1 X4.125 Y1.125 E96.75
G1 X4.875 Y1.125 E97.5
G1 X4.875 Y1.875 E98.25
G1 X4.875 Y2.625 E99.0
G1 X4.875 Y3.375 E99.75
G1 X5.625 Y3.375 E100.5
G1 X5.625 Y2.625 E101.25
G1 X6.375 Y2.625 E102.0
G1 X6.375 Y3.375 E102.75
G1 X7.125 Y3.375 E103.5
G1 X7.125 Y4.125 E104.25
G1 X7.875 Y4.125 E105.0
G1 X7.875 Y4.875 E105.75
G1 X7.125 Y4.875 E106.5
G1 X7.125 Y4.125 E107.25
G1 X6.375 Y4.125 E108.0
G1 X6.375 Y3.375 E108.75
G1 X5.625 Y3.375 E109.5
G1 X5.625 Y4.125 E110.25
G1 X5.625 Y4.875 E111.0
G1 X4.875 Y4.875 E111.75
G1 X4.125 Y4.875 E112.5
G1 X4.125 Y4.125 E113.25
G1 X3.375 Y4.125 E114.0
G1 X3.375 Y3.375 E114.75
G1 X2.625 Y3.375 E115.5
G1 X2.625 Y2.625 E116.25
G1 X3.375 Y2.625 E117.0
G1 X3.375 Y3.375 E117.75
G1 X4.125 Y3.375 E118.5
G1 X4.125 Y4.125 E119.25
G1 X4.875 Y4.125 E120.0
G1 X4.875 Y4.875 E120.75
G1 X4.875 Y5.625 E121.5
G1 X4.875 Y6.375 E122.25
G1 X5.625 Y6.375 E123.0
G1 X5.625 Y5.625 E123.75
G1 X6.375 Y5.625 E124.5
G1 X6.375 Y6.375 E125.25
G1 X7.125 Y6.375 E126.0
G1 X7.125 Y7.125 E126.75
G1 X7.875 Y7.125 E127.5
G1 X8.625 Y7.125 E128.25
G1 X8.625 Y6.375 E129.0
G1 X7.875 Y6.375 E129.75
G1 X7.125 Y6.375 E130.5
G1 X7.125 Y5.625 E131.25
G1 X7.875 Y5.625 E132.0
G1 X8.625 Y5.625 E132.75
G1 X8.625 Y4.875 E133.5
G1 X9.375 Y4.875 E134.25
G1 X9.375 Y5.625 E135.0
G1 X10.125 Y5.625 E135.75
G1 X10.125 Y6.375 E136.5
G1 X9.375 Y6.375 E137.25
G1 X8.625 Y6.375 E138.0
G1 X8.625 Y5.625 E138.75
G1 X9.375 Y5.625 E139.5
G1 X9.375 Y6.375 E140.25
G1 X9.375 Y7.125 E141.0
G1 X9.375 Y7.875 E141.75
G1 X10.125 Y7.875 E142.5
G1 X10.125 Y7.125 E143.25
G1 X9.375 Y7.125 E144.0
G1 X8.625 Y7.125 E144.75
G1 X8.625 Y7.875 E145.5
G1 X9.375 Y7.875 E146.25
G1 X9.375 Y8.625 E147.0
G1 X10.125 Y8.625 E147.75
G1 X10.125 Y9.375 E148.5
G1 X9.375 Y10.125 E149.56066017177983
G1 X8.625 Y10.125 E150.31066017177983
G1 X8.625 Y9.375 E151.06066017177983
G1 X7.875 Y9.375 E151.81066017177983
G1 X7.875 Y8.625 E152.56066017177983
G1 X7.875 Y7.875 E153.31066017177983
G1 X7.125 Y7.875 E154.06066017177983
G1 X7.125 Y7.125 E154.81066017177983
G1 X6.375 Y7.125 E155.56066017177983
G1 X6.375 Y6.375 E156.31066017177983
G1 X5.625 Y6.375 E157.06066017177983
G1 X5.625 Y7.125 E157.81066017177983
G1 X5.625 Y7.875 E158.56066017177983
G1 X4.875 Y7.875 E159.31066017177983
G1 X4.125 Y7.875 E160.06066017177983
G1 X4.125 Y7.125 E160.81066017177983
G1 X3.375 Y7.125 E161.56066017177983
G1 X3.375 Y6.375 E162.31066017177983
G1 X2.625 Y6.375 E163.06066017177983
G1 X2.625 Y5.625 E163.81066017177983
G1 X3.375 Y5.625 E164.56066017177983
G1 X3.375 Y6.375 E165.31066017177983
G1 X4.125 Y6.375 E166.06066017177983
G1 X4.125 Y7.125 E166.81066017177983
G1 X4.875 Y7.125 E167.56066017177983
G1 X4.875 Y7.875 E168.31066017177983
G1 X4.875 Y8.625 E169.06066017177983
G1 X4.875 Y9.375 E169.81066017177983
G1 X4.875 Y10.125 E170.56066017177983
G1 X4.125 Y10.125 E171.31066017177983
G1 X4.125 Y9.375 E172.06066017177983
G1 X4.125 Y8.625 E172.81066017177983
G1 X4.875 Y8.625 E173.56066017177983
G1 X5.625 Y8.625 E174.31066017177983
G1 X5.625 Y7.875 E175.06066017177983
G1 X6.375 Y7.875 E175.81066017177983
G1 X6.375 Y8.625 E176.56066017177983
G1 X7.125 Y8.625 E177.31066017177983
G1 X7.125 Y7.875 E178.06066017177983
G1 X6.375 Y7.875 E178.81066017177983
G1 X6.375 Y7.125 E179.56066017177983
G1 X5.625 Y7.125 E180.31066017177983
G1 X4.875 Y7.125 E181.06066017177983
G1 X4.875 Y6.375 E181.81066017177983
G1 X4.125 Y6.375 E182.56066017177983
G1 X4.125 Y5.625 E183.31066017177983
G1 X4.875 Y5.625 E184.06066017177983
G1 X5.625 Y5.625 E184.81066017177983
G1 X5.625 Y4.875 E185.56066017177983
G1 X6.375 Y4.875 E186.31066017177983
G1 X6.375 Y5.625 E187.06066017177983
G1 X7.125 Y5.625 E187.81066017177983
G1 X7.125 Y4.875 E188.56066017177983
G1 X6.375 Y4.875 E189.31066017177983
G1 X6.375 Y4.125 E190.06066017177983
G1 X5.625 Y4.125 E190.81066017177983
G1 X4.875 Y4.125 E191.56066017177983
G1 X4.875 Y3.375 E192.31066017177983
G1 X4.125 Y3.375 E193.06066017177983
G1 X4.125 Y2.625 E193.81066017177983
G1 X4.125 Y1.875 E194.56066017177983
G1 X3.375 Y1.875 E195.31066017177983
G1 X3.375 Y1.125 E196.06066017177983
G1 X2.625 Y1.125 E196.81066017177983
G1 X2.625 Y1.875 E197.56066017177983
G1 X1.875 Y1.875 E198.31066017177983
G1 X1.125 Y1.875 E199.06066017177983
G1 X1.125 Y1.125 E199.81066017177983
G1 X0.375 Y1.125 E200.56066017177983
G1 X0.375 Y0.375 E201.31066017177983
G1 X-0.375 Y0.375 E202.06066017177983
G1 X-0.375 Y-0.375 E202.81066017177983
G1 X0.375 Y-0.375 E203.56066017177983
G1 X0.375 Y0.375 E204.31066017177983
G1 X1.125 Y0.375 E205.06066017177983
G1 X1.125 Y1.125 E205.81066017177983
G1 X1.875 Y1.125 E206.56066017177983
G1 X1.875 Y1.875 E207.31066017177983
G1 X1.875 Y2.625 E208.06066017177983
G1 X1.875 Y3.375 E208.81066017177983
G1 X2.625 Y3.375 E209.56066017177983
G1 X2.625 Y4.125 E210.31066017177983
G1 X2.625 Y4.875 E211.06066017177983
G1 X1.875 Y4.875 E211.81066017177983
G1 X1.125 Y4.875 E212.56066017177983
G1 X1.125 Y4.125 E213.31066017177983
G1 X0.375 Y4.125 E214.06066017177983
G1 X0.375 Y3.375 E214.81066017177983
G1 X-0.375 Y3.375 E215.56066017177983
G1 X-0.375 Y2.625 E216.31066017177983
G1 X0.375 Y2.625 E217.06066017177983
G1 X0.375 Y3.375 E217.81066017177983
G1 X1.125 Y3.375 E218.56066017177983
G1 X1.125 Y4.125 E219.31066017177983
G1 X1.875 Y4.125 E220.06066017177983
G1 X1.875 Y4.875 E220.81066017177983
G1 X1.875 Y5.625 E221.56066017177983
G1 X1.875 Y6.375 E222.31066017177983
G1 X2.625 Y6.375 E223.06066017177983
G1 X2.625 Y7.125 E223.81066017177983
G1 X2.625 Y7.875 E224.56066017177983
G1 X1.875 Y7.875 E225.31066017177983
G1 X1.125 Y7.875 E226.06066017177983
G1 X1.125 Y7.125 E226.81066017177983
G1 X0.375 Y7.125 E227.56066017177983
G1 X0.375 Y6.375 E228.31066017177983
G1 X-0.375 Y6.375 E229.06066017177983
G1 X-0.375 Y5.625 E229.81066017177983
G1 X0.375 Y5.625 E230.56066017177983
G1 X0.375 Y6.375 E231.31066017177983
G1 X1.125 Y6.375 E232.06066017177983
G1 X1.125 Y7.125 E232.81066017177983
G1 X1.875 Y7.125 E233.56066017177983
G1 X1.875 Y7.875 E234.31066017177983
G1 X1.875 Y8.625 E235.06066017177983
G1 X1.875 Y9.375 E235.81066017177983
G1 X1.875 Y10.125 E236.56066017177983
G1 X1.125 Y10.125 E237.31066017177983
G1 X1.125 Y9.375 E238.06066017177983
G1 X1.125 Y8.625 E238.81066017177983
G1 X1.875 Y8.625 E239.56066017177983
G1 X2.625 Y8.625 E240.31066017177983
G1 X2.625 Y7.875 E241.06066017177983
G1 X3.375 Y7.875 E241.81066017177983
G1 X3.375 Y8.625 E242.56066017177983
G1 X4.125 Y8.625 E243.31066017177983
G1 X4.125 Y7.875 E244.06066017177983
G1 X3.375 Y7.875 E244.81066017177983
G1 X3.375 Y7.125 E245.56066017177983
G1 X2.625 Y7.125 E246.31066017177983
G1 X1.875 Y7.125 E247.06066017177983
G1 X1.875 Y6.375 E247.81066017177983
G1 X1.125 Y6.375 E248.56066017177983
G1 X1.125 Y5.625 E249.31066017177983
G1 X1.875 Y5.625 E250.06066017177983
G1 X2.625 Y5.625 E250.81066017177983
G1 X2.625 Y4.875 E251.56066017177983
G1 X3.375 Y4.875 E252.31066017177983
G1 X3.375 Y5.625 E253.06066017177983
G1 X4.125 Y5.625 E253.81066017177983
G1 X4.125 Y4.875 E254.56066017177983
G1 X3.375 Y4.875 E255.31066017177983
G1 X3.375 Y4.125 E256.06066017177983
G1 X2.625 Y4.125 E256.81066017177983
G1 X1.875 Y4.125 E257.56066017177983
G1 X1.875 Y3.375 E258.31066017177983
G1 X1.125 Y3.375 E259.06066017177983
G1 X1.125 Y2.625 E259.81066017177983
G1 X1.125 Y1.875 E260.56066017177983
G1 X0.375 Y1.875 E261.31066017177983
G1 X0.375 Y1.125 E262.06066017177983
G1 X-0.375 Y1.125 E262.81066017177983
G1 X-0.375 Y1.875 E263.56066017177983
G1 X-1.125 Y1.875 E264.31066017177983
G1 X-1.875 Y1.875 E265.06066017177983
G1 X-1.875 Y1.125 E265.81066017177983
G1 X-2.625 Y1.125 E266.56066017177983
G1 X-2.625 Y0.375 E267.31066017177983
G1 X-3.375 Y0.375 E268.06066017177983
G1 X-3.375 Y-0.375 E268.81066017177983
G1 X-2.625 Y-0.375 E269.56066017177983
G1 X-2.625 Y0.375 E270.31066017177983
G1 X-1.875 Y0.375 E271.06066017177983
G1 X-1.875 Y1.125 E271.81066017177983
G1 X-1.125 Y1.125 E272.56066017177983
G1 X-1.125 Y1.875 E273.31066017177983
G1 X-1.125 Y2.625 E274.06066017177983
G1 X-1.125 Y3.375 E274.81066017177983
G1 X-0.375 Y3.375 E275.56066017177983
G1 X-0.375 Y4.125 E276.31066017177983
G1 X-0.375 Y4.875 E277.06066017177983
G1 X-1.125 Y4.875 E277.81066017177983
G1 X-1.875 Y4.875 E278.56066017177983
G1 X-1.875 Y4.125 E279.31066017177983
G1 X-2.625 Y4.125 E280.06066017177983
G1 X-2.625 Y3.375 E280.81066017177983
G1 X-3.375 Y3.375 E281.56066017177983
G1 X-3.375 Y2.625 E282.31066017177983
G1 X-2.625 Y2.625 E283.06066017177983
G1 X-2.625 Y3.375 E283.81066017177983
G1 X-1.875 Y3.375 E284.56066017177983
G1 X-1.875 Y4.125 E285.31066017177983
G1 X-1.125 Y4.125 E286.06066017177983
G1 X-1.125 Y4.875 E286.81066017177983
G1 X-1.125 Y5.625 E287.56066017177983
G1 X-1.125 Y6.375 E288.31066017177983
G1 X-0.375 Y6.375 E289.06066017177983
G1 X-0.375 Y7.125 E289.81066017177983
G1 X-0.375 Y7.875 E290.56066017177983
G1 X-1.125 Y7.875 E291.31066017177983
G1 X-1.875 Y7.875 E292.06066017177983
G1 X-1.875 Y7.125 E292.81066017177983
G1 X-2.625 Y7.125 E293.56066017177983
G1 X-2.625 Y6.375 E294.31066017177983
G1 X-3.375 Y6.375 E295.06066017177983
G1 X-3.375 Y5.625 E295.81066017177983
G1 X-2.625 Y5.625 E296.56066017177983
G1 X-2.625 Y6.375 E297.31066017177983
G1 X-1.875 Y6.375 E298.06066017177983
G1 X-1.875 Y7.125 E298.81066017177983
G1 X-1.125 Y7.125 E299.56066017177983
G1 X-1.125 Y7.875 E300.31066017177983
G1 X-1.125 Y8.625 E301.06066017177983
G1 X-1.125 Y9.375 E301.81066017177983
G1 X-1.125 Y10.125 E302.56066017177983
G1 X-1.875 Y10.125 E303.31066017177983
G1 X-1.875 Y9.375 E304.06066017177983
G1 X-1.875 Y8.625 E304.81066017177983
G1 X-1.125 Y8.625 E305.56066017177983
G1 X-0.375 Y8.625 E306.31066017177983
G1 X-0.375 Y7.875 E307.06066017177983
G1 X0.375 Y7.875 E307.81066017177983
G1 X0.375 Y8.625 E308.56066017177983
G1 X1.125 Y8.625 E309.31066017177983
G1 X1.125 Y7.875 E310.06066017177983
G1 X0.375 Y7.875 E310.81066017177983
G1 X0.375 Y7.125 E311.56066017177983
G1 X-0.375 Y7.125 E312.31066017177983
G1 X-1.125 Y7.125 E313.06066017177983
G1 X-1.125 Y6.375 E313.81066017177983
G1 X-1.875 Y6.375 E314.56066017177983
G1 X-1.875 Y5.625 E315.31066017177983
G1 X-1.125 Y5.625 E316.06066017177983
G1 X-0.375 Y5.625 E316.81066017177983
G1 X-0.375 Y4.875 E317.56066017177983
G1 X0.375 Y4.875 E318.31066017177983
G1 X0.375 Y5.625 E319.06066017177983
G1 X1.125 Y5.625 E319.81066017177983
G1 X1.125 Y4.875 E320.56066017177983
G1 X0.375 Y4.875 E321.31066017177983
G1 X0.375 Y4.125 E322.06066017177983
G1 X-0.375 Y4.125 E322.81066017177983
G1 X-1.125 Y4.125 E323.56066017177983
G1 X-1.125 Y3.375 E324.31066017177983
G1 X-1.875 Y3.375 E325.06066017177983
G1 X-1.875 Y2.625 E325.81066017177983
G1 X-1.875 Y1.875 E326.56066017177983
G1 X-2.625 Y1.875 E327.31066017177983
G1 X-2.625 Y1.125 E328.06066017177983
G1 X-3.375 Y1.125 E328.81066017177983
G1 X-3.375 Y1.875 E329.56066017177983
G1 X-4.125 Y1.875 E330.31066017177983
G1 X-4.875 Y1.875 E331.06066017177983
G1 X-4.875 Y1.125 E331.81066017177983
G1 X-5.625 Y1.125 E332.56066017177983
G1 X-5.625 Y0.375 E333.31066017177983
G1 X-6.375 Y0.375 E334.06066017177983
G1 X-6.375 Y-0.375 E334.81066017177983
G1 X-5.625 Y-0.375 E335.56066017177983
G1 X-5.625 Y0.375 E336.31066017177983
G1 X-4.875 Y0.375 E337.06066017177983
G1 X-4.875 Y1.125 E337.81066017177983
G1 X-4.125 Y1.125 E338.56066017177983
G1 X-4.125 Y1.875 E339.31066017177983
G1 X-4.125 Y2.625 E340.06066017177983
G1 X-4.125 Y3.375 E340.81066017177983
G1 X-3.375 Y3.375 E341.56066017177983
G1 X-3.375 Y4.125 E342.31066017177983
G1 X-3.375 Y4.875 E343.06066017177983
G1 X-4.125 Y4.875 E343.81066017177983
G1 X-4.875 Y4.875 E344.56066017177983
G1 X-4.875 Y4.125 E345.31066017177983
G1 X-5.625 Y4.125 E346.06066017177983
G1 X-5.625 Y3.375 E346.81066017177983
G1 X-6.375 Y3.375 E347.56066017177983
G1 X-6.375 Y2.625 E348.31066017177983
G1 X-5.625 Y2.625 E349.06066017177983
G1 X-5.625 Y3.375 E349.81066017177983
G1 X-4.875 Y3.375 E350.56066017177983
G1 X-4.875 Y4.125 E351.31066017177983
G1 X-4.125 Y4.125 E352.06066017177983
G1 X-4.125 Y4.875 E352.81066017177983
G1 X-4.125 Y5.625 E353.56066017177983
G1 X-4.125 Y6.375 E354.31066017177983
G1 X-3.375 Y6.375 E355.06066017177983
G1 X-3.375 Y7.125 E355.81066017177983
G1 X-3.375 Y7.875 E356.56066017177983
G1 X-4.125 Y7.875 E357.31066017177983
G1 X-4.125 Y7.125 E358.06066017177983
G1 X-4.875 Y7.125 E358.81066017177983
G1 X-4.875 Y6.375 E359.56066017177983
G1 X-5.625 Y6.375 E360.31066017177983
G1 X-5.625 Y5.625 E361.06066017177983
G1 X-6.375 Y5.625 E361.81066017177983
G1 X-6.375 Y6.375 E362.56066017177983
G1 X-6.375 Y7.125 E363.31066017177983
G1 X-6.375 Y7.875 E364.06066017177983
G1 X-7.125 Y7.875 E364.81066017177983
G1 X-7.875 Y7.875 E365.56066017177983
G1 X-7.875 Y7.125 E366.31066017177983
G1 X-8.625 Y7.125 E367.06066017177983
G1 X-8.625 Y6.375 E367.81066017177983
G1 X-9.375 Y6.375 E368.56066017177983
G1 X-9.375 Y5.625 E369.31066017177983
G1 X-8.625 Y5.625 E370.06066017177983
G1 X-8.625 Y6.375 E370.81066017177983
G1 X-7.875 Y6.375 E371.56066017177983
